X:19
T:Old Maid, The
T:Hag at the Spinning Wheel, The
T:Maid at the Spinning Wheel, The
T:Old Maid at the Spinning Wheel, The
R:jig
D:Paddy Moloney & Sean Potts: Tin Whistles.
Z:id:hn-jig-19
M:6/8
K:G
~G3 B2G | BcA B2D | ~G3 cAG | F2G AFD |
~G3 B2G | BcA B2g | fed cAF |1 GAG G2D :|2 GAG G2c ||
|: BAG AFD | ~D3 AFD | ~D3 AFD | EFG ABc |
BAG AFD | ~D3 AFD | ded cAF |1 GAG G2c :|2 GAG G2D ||
|: GBd gba | gdB ecA | dBG cAG | EFG AFD |
GBd gba | gdB ecA | fed cAF |1 GAG G2D :|2 GAG G2c ||
|: BAG Agd | Bgd Agd | Bgd cBA | EFG ABc |
BAG AFD | ~D3 AFD | ded cAF |1 GAG G2c :|2 GAG G2D ||
P:variations
|: ~G3 ~B3 | BcA B2D | GFG cAG | FEF AFD |
~G3 BDG | BcA B2g | fed cAF |1 AGF G2D :|2 AGF G2c ||
|: BAG AFD | ~D3 AFD | ~D3 AFD | EFG ABc |
~B3 AFD | ~D3 AFD | d2d cAF |1 AGF G2c :|2 AGF G2D ||
|: GBd gba | gdB ecA | dBG cAG | F2G AFD |
GBd gba | gdB ecA | fed cAF |1 AGF G2D :|2 AGF G2c ||
|: BAG Afd | Bgd Afd | Bgd cBA | EFG ABc |
BAG AFD | ~D3 AFD | ded cAF |1 AGF G2c :|2 AGF G2D ||
<end>
<start>
